X: 2
T: Drummer's Call v.2
P: piffero primo a0860
O: Camp Dupont
%R: march, reel
F: http://ancients.sudburymuster.org/mus/sng/pdf/drummersC0.pdf
Z: 2020 John Chambers <jc:trillian.mit.edu>
M: 2/4
L: 1/16
K: G
d2 |\
fdc2 B3c | BdcB A3d- | d2c2 B2F2 | GBEG F2d>e |\
fdc2 B3c | BdcB A3F | d2F2 G2d2 | AcBA G2 :|


